dist/images/svg/pizza.svg

<svg width="45" height="44" viewBox="0 0 45 44" xmlns="http://www.w3.org/2000/svg">
<g clip-path="url(#clip0)">
<path d="M43.8581 43.7521C43.6233 43.9838 43.2762 44.0611 42.9657 43.9499L7.27139 31.2228C6.03131 31.9811 4.4584 32.1587 3.01577 31.5613C0.62113 30.5694 -0.520204 27.8141 0.471684 25.4193C2.81081 19.7725 6.18806 14.718 10.5099 10.3961C14.8318 6.07421 19.8863 2.69688 25.5332 0.357838C26.1196 0.114979 26.7274 -3.8147e-06 27.3259 -3.8147e-06C29.1714 8.01086e-05 30.9262 1.09364 31.6751 2.90201C32.179 4.11871 32.1314 5.42823 31.6494 6.55263L44.0674 42.8624C44.1742 43.1745 44.0929 43.5203 43.8581 43.7521ZM12.676 31.3252L16.459 32.6739C16.9031 32.2007 17.1196 31.5493 17.0328 30.8905C16.9564 30.3104 16.6587 29.7947 16.1945 29.4385C15.7304 29.0823 15.1556 28.9284 14.5751 29.0046C13.9951 29.081 13.4795 29.3786 13.1233 29.8429C12.7951 30.2706 12.639 30.7924 12.676 31.3252ZM30.0872 3.55986C29.4579 2.04066 27.7098 1.31664 26.1909 1.94605C15.1875 6.50373 6.61758 15.0737 2.05972 26.0772C1.7549 26.813 1.7549 27.6235 2.05972 28.3595C2.36454 29.0954 2.93766 29.6685 3.67354 29.9733C4.40942 30.2781 5.21998 30.2781 5.95586 29.9733C6.69174 29.6685 7.26486 29.0954 7.56968 28.3595C9.52054 23.6495 12.3376 19.4336 15.9425 15.8287C19.5474 12.2238 23.7633 9.40687 28.4732 7.45592C29.9924 6.82677 30.7165 5.07889 30.0872 3.55986ZM37.7221 29.6202C37.6443 29.6221 37.5664 29.6265 37.4888 29.6367C36.9088 29.7131 36.3931 30.0108 36.037 30.4749C35.6808 30.9391 35.5267 31.5142 35.603 32.0942C35.7607 33.2917 36.8629 34.1375 38.0608 33.98C38.4303 33.9314 38.7772 33.7881 39.0731 33.57L37.7221 29.6202ZM39.6443 35.241C39.2256 35.469 38.7656 35.6208 38.2851 35.6841C36.1477 35.9662 34.1803 34.4557 33.899 32.3185C33.7627 31.2833 34.0377 30.257 34.6734 29.4285C35.2857 28.6306 36.1622 28.1093 37.151 27.9503L35.4429 22.9557L33.4786 24.4631C33.1021 24.7518 32.5625 24.681 32.2737 24.3044C31.9847 23.9279 32.0558 23.3884 32.4323 23.0995L34.8562 21.2397L30.4137 8.24981C30.0411 8.57379 29.612 8.84484 29.1314 9.04396C20.0237 12.8165 12.9304 19.9098 9.15806 29.0173C9.02692 29.334 8.86398 29.6281 8.67604 29.899L10.9774 30.7195C11.0577 30.0262 11.3239 29.3648 11.7598 28.7967C12.3954 27.9682 13.3157 27.437 14.3509 27.3007C14.5243 27.2779 14.6972 27.2665 14.8693 27.2665C15.7242 27.2665 16.5512 27.5458 17.2409 28.075C18.0694 28.7107 18.6006 29.6308 18.737 30.6662C18.8593 31.5956 18.6424 32.5162 18.1554 33.2788L28.838 37.0877L29.2428 36.1103C29.38 35.7793 29.6999 35.5795 30.0371 35.5795C30.1467 35.5795 30.2581 35.6007 30.3657 35.6452C30.8041 35.8268 31.0124 36.3296 30.8308 36.768L30.459 37.6656L41.8645 41.7324L39.6443 35.241Z"/>
<path d="M9.39401 20.9451C9.39143 20.9492 9.3843 20.9601 9.38155 20.964C9.11841 21.3587 8.58585 21.4647 8.19097 21.2018C7.79678 20.9394 7.68987 20.4066 7.95078 20.0118C8.11535 19.7589 8.39069 19.621 8.67196 19.621C8.83112 19.621 8.99208 19.6652 9.13577 19.7576C9.53503 20.0142 9.65062 20.5459 9.39401 20.9451Z"/>
<path d="M8.08706 23.08C7.2496 24.5483 6.49679 26.0851 5.8496 27.6473C5.66801 28.0859 5.16502 28.2939 4.72683 28.1123C4.28829 27.9307 4.08015 27.428 4.26182 26.9896C4.93643 25.361 5.72121 23.7591 6.59416 22.2285C6.75272 21.9506 7.04284 21.7947 7.34139 21.7947C7.48576 21.7947 7.63211 21.8312 7.76635 21.9077C8.17859 22.1429 8.32227 22.6678 8.08706 23.08Z"/>
<path d="M27.0054 33.0012C26.8351 33.0237 26.6621 33.035 26.4913 33.035C24.539 33.035 22.8744 31.5737 22.6193 29.6358C22.338 27.4987 23.8476 25.5311 25.9847 25.2497C26.1551 25.2272 26.3281 25.2159 26.4989 25.2159C28.4511 25.2159 30.1157 26.6772 30.3708 28.6153C30.6521 30.7523 29.1424 32.7198 27.0054 33.0012ZM28.6668 28.8396C28.5238 27.7536 27.5919 26.9347 26.4989 26.9347C26.4028 26.9347 26.3053 26.941 26.2091 26.9538C25.0116 27.1115 24.1658 28.2139 24.3234 29.4115C24.4664 30.4974 25.3983 31.3162 26.4913 31.3162C26.5873 31.3162 26.6849 31.3098 26.781 31.2971C27.9785 31.1393 28.8245 30.0369 28.6668 28.8396Z"/>
<path d="M26.7818 22.3116C26.6113 22.3341 26.4384 22.3455 26.2676 22.3455C24.3154 22.3455 22.6507 20.8841 22.3957 18.9461C22.2593 17.9108 22.5343 16.8846 23.17 16.056C23.8056 15.2276 24.7258 14.6963 25.7611 14.56C25.9313 14.5375 26.1042 14.5263 26.275 14.5263C28.2272 14.5263 29.8919 15.9876 30.1471 17.9257C30.4285 20.0626 28.9188 22.0301 26.7818 22.3116ZM28.4432 18.1499C28.3002 17.0639 27.3681 16.245 26.2752 16.245C26.1792 16.245 26.0816 16.2515 25.9855 16.2641C25.4055 16.3406 24.8898 16.6383 24.5336 17.1024C24.1774 17.5666 24.0233 18.1417 24.0997 18.7218C24.2427 19.8077 25.1747 20.6266 26.2676 20.6266C26.3637 20.6266 26.4612 20.6203 26.5574 20.6075C27.7547 20.4498 28.6007 19.3474 28.4432 18.1499Z"/>
<path d="M21.1138 25.8718L18.4724 26.2196C18.0021 26.2821 17.5701 25.9504 17.5082 25.4799C17.4461 25.0093 17.7774 24.5776 18.2479 24.5157L20.8893 24.1679C20.9274 24.1628 20.9652 24.1604 21.0026 24.1604C21.4272 24.1604 21.7965 24.4752 21.8534 24.9076C21.9156 25.3781 21.5844 25.8099 21.1138 25.8718Z"/>
<path d="M19.7743 19.5299L19.5411 21.3022C19.4792 21.7728 19.0476 22.1042 18.577 22.0421C18.1064 21.9801 17.7752 21.5485 17.8371 21.0779L18.0705 19.3056C18.1274 18.8731 18.4966 18.5583 18.9213 18.5583C18.9587 18.5583 18.9965 18.5607 19.0345 18.5657C19.5051 18.6277 19.8363 19.0593 19.7743 19.5299Z"/>
</g>
<defs>
<clipPath id="clip0">
<rect width="44" height="44" transform="matrix(1 0 0 -1 0.112793 44)"/>
</clipPath>
</defs>
</svg>

<svg width="45" height="44" xmlns="http://www.w3.org/2000/svg"><g clip-path="url(#clip0)"><path d="M43.858 43.752a.859.859 0 01-.892.198L7.27 31.223a4.698 4.698 0 01-4.255.338A4.706 4.706 0 01.472 25.42 46.081 46.081 0 0110.51 10.396 46.079 46.079 0 0125.533.358 4.675 4.675 0 0127.326 0c1.845 0 3.6 1.094 4.35 2.902a4.687 4.687 0 01-.027 3.65l12.418 36.31a.86.86 0 01-.209.89zM12.676 31.325l3.783 1.349a2.186 2.186 0 00-.264-3.235 2.176 2.176 0 00-1.62-.434 2.176 2.176 0 00-1.452.838c-.328.428-.484.95-.447 1.482zM30.087 3.56a2.985 2.985 0 00-3.896-1.614C15.188 6.504 6.618 15.074 2.06 26.077a2.962 2.962 0 000 2.282 2.962 2.962 0 001.614 1.614 2.963 2.963 0 002.282 0A2.962 2.962 0 007.57 28.36a38.432 38.432 0 018.373-12.531 38.434 38.434 0 0112.53-8.373 2.985 2.985 0 001.614-3.896zm7.635 26.06a2.176 2.176 0 00-1.685.855 2.176 2.176 0 00-.434 1.62 2.187 2.187 0 003.47 1.476l-1.35-3.95zm1.922 5.621a3.913 3.913 0 01-5.745-2.922 3.884 3.884 0 01.774-2.89 3.88 3.88 0 012.478-1.479l-1.708-4.994-1.964 1.507a.86.86 0 01-1.047-1.364l2.424-1.86-4.442-12.99a4.682 4.682 0 01-1.283.795c-9.107 3.772-16.2 10.866-19.973 19.973a4.7 4.7 0 01-.482.882l2.301.82a3.88 3.88 0 01.783-1.922 3.883 3.883 0 013.11-1.53c.854 0 1.681.279 2.37.808a3.884 3.884 0 011.497 2.591c.122.93-.095 1.85-.582 2.613l10.683 3.809.405-.978a.86.86 0 111.588.658l-.372.898 11.405 4.066-2.22-6.491z"/><path d="M9.394 20.945zM8.087 23.08a40.676 40.676 0 00-2.237 4.567.86.86 0 01-1.588-.657 42.393 42.393 0 012.332-4.761.86.86 0 111.493.851zm18.918 9.921a3.918 3.918 0 01-4.386-3.365 3.914 3.914 0 013.88-4.42 3.918 3.918 0 013.872 3.4A3.914 3.914 0 0127.005 33zm1.662-4.161a2.195 2.195 0 00-2.458-1.886 2.193 2.193 0 00-1.886 2.457 2.194 2.194 0 002.458 1.886 2.193 2.193 0 001.886-2.457zm-1.885-6.528a3.918 3.918 0 01-4.386-3.365 3.883 3.883 0 01.774-2.891 3.883 3.883 0 013.105-1.53 3.918 3.918 0 013.872 3.4 3.914 3.914 0 01-3.365 4.386zm1.661-4.162a2.195 2.195 0 00-2.458-1.886 2.177 2.177 0 00-1.451.838 2.176 2.176 0 00-.434 1.62 2.195 2.195 0 002.457 1.886 2.193 2.193 0 001.886-2.458zm-7.329 7.722l-2.642.348a.859.859 0 11-.224-1.704l2.641-.348a.86.86 0 01.225 1.704zm-1.34-6.342l-.233 1.772a.86.86 0 11-1.704-.224l.233-1.772a.86.86 0 111.704.224z"/></g><defs><clipPath id="clip0"><path transform="matrix(1 0 0 -1 .113 44)" d="M0 0h44v44H0z"/></clipPath></defs></svg>
